images/3234988.svg

<?xml version="1.0" encoding="UTF-8"?>
<svg xmlns="http://www.w3.org/2000/svg" xmlns:xlink="http://www.w3.org/1999/xlink" width="300pt" height="300pt" viewBox="0 0 300 300" version="1.1">
<defs>
<g>
<symbol overflow="visible" id="glyph0-0">
<path style="stroke:none;" d="M 0.640625 2.296875 L 0.640625 -9.171875 L 7.140625 -9.171875 L 7.140625 2.296875 Z M 1.375 1.578125 L 6.421875 1.578125 L 6.421875 -8.4375 L 1.375 -8.4375 Z M 1.375 1.578125 "/>
</symbol>
<symbol overflow="visible" id="glyph0-1">
<path style="stroke:none;" d="M 1.28125 -9.484375 L 3 -9.484375 L 7.203125 -1.546875 L 7.203125 -9.484375 L 8.453125 -9.484375 L 8.453125 0 L 6.71875 0 L 2.515625 -7.921875 L 2.515625 0 L 1.28125 0 Z M 1.28125 -9.484375 "/>
</symbol>
</g>
</defs>
<g id="surface53573">
<rect x="0" y="0" width="300" height="300" style="fill:rgb(100%,100%,100%);fill-opacity:1;stroke:none;"/>
<path style="fill:none;stroke-width:1.2;stroke-linecap:butt;stroke-linejoin:miter;stroke:rgb(0%,0%,0%);stroke-opacity:1;stroke-miterlimit:10;" d="M 64.105469 191.910156 L 64.40625 158.070312 "/>
<path style="fill:none;stroke-width:1.2;stroke-linecap:butt;stroke-linejoin:miter;stroke:rgb(0%,0%,0%);stroke-opacity:1;stroke-miterlimit:10;" d="M 64.40625 158.070312 L 35.25 140.886719 "/>
<path style="fill:none;stroke-width:1.2;stroke-linecap:butt;stroke-linejoin:miter;stroke:rgb(0%,0%,0%);stroke-opacity:1;stroke-miterlimit:10;" d="M 65.53125 149.492188 L 42.207031 135.746094 "/>
<path style="fill:none;stroke-width:1.2;stroke-linecap:butt;stroke-linejoin:miter;stroke:rgb(0%,0%,0%);stroke-opacity:1;stroke-miterlimit:10;" d="M 93.863281 141.410156 L 64.40625 158.070312 "/>
<path style="fill:none;stroke-width:1.2;stroke-linecap:butt;stroke-linejoin:miter;stroke:rgb(0%,0%,0%);stroke-opacity:1;stroke-miterlimit:10;" d="M 35.25 140.886719 L 35.550781 107.046875 "/>
<path style="fill:none;stroke-width:1.2;stroke-linecap:butt;stroke-linejoin:miter;stroke:rgb(0%,0%,0%);stroke-opacity:1;stroke-miterlimit:10;" d="M 35.550781 107.046875 L 65.007812 90.386719 "/>
<path style="fill:none;stroke-width:1.2;stroke-linecap:butt;stroke-linejoin:miter;stroke:rgb(0%,0%,0%);stroke-opacity:1;stroke-miterlimit:10;" d="M 42.417969 112.3125 L 65.980469 98.984375 "/>
<path style="fill:none;stroke-width:1.2;stroke-linecap:butt;stroke-linejoin:miter;stroke:rgb(0%,0%,0%);stroke-opacity:1;stroke-miterlimit:10;" d="M 65.007812 90.386719 L 94.164062 107.570312 "/>
<path style="fill:none;stroke-width:1.2;stroke-linecap:butt;stroke-linejoin:miter;stroke:rgb(0%,0%,0%);stroke-opacity:1;stroke-miterlimit:10;" d="M 94.164062 107.570312 L 93.863281 141.410156 "/>
<path style="fill:none;stroke-width:1.2;stroke-linecap:butt;stroke-linejoin:miter;stroke:rgb(0%,0%,0%);stroke-opacity:1;stroke-miterlimit:10;" d="M 86.171875 110.882812 L 85.929688 137.953125 "/>
<path style="fill:none;stroke-width:1.2;stroke-linecap:butt;stroke-linejoin:miter;stroke:rgb(0%,0%,0%);stroke-opacity:1;stroke-miterlimit:10;" d="M 93.863281 141.410156 L 123.019531 158.589844 "/>
<path style="fill:none;stroke-width:1.2;stroke-linecap:butt;stroke-linejoin:miter;stroke:rgb(0%,0%,0%);stroke-opacity:1;stroke-miterlimit:10;" d="M 123.019531 158.589844 L 122.867188 175.511719 "/>
<path style="fill:none;stroke-width:1.2;stroke-linecap:butt;stroke-linejoin:miter;stroke:rgb(0%,0%,100%);stroke-opacity:1;stroke-miterlimit:10;" d="M 122.867188 175.511719 L 122.71875 192.429688 "/>
<path style="fill:none;stroke-width:1.2;stroke-linecap:butt;stroke-linejoin:miter;stroke:rgb(0%,0%,0%);stroke-opacity:1;stroke-miterlimit:10;" d="M 130.953125 162.046875 L 130.832031 175.582031 "/>
<path style="fill:none;stroke-width:1.2;stroke-linecap:butt;stroke-linejoin:miter;stroke:rgb(0%,0%,100%);stroke-opacity:1;stroke-miterlimit:10;" d="M 130.832031 175.582031 L 130.710938 189.117188 "/>
<path style="fill:none;stroke-width:1.2;stroke-linecap:butt;stroke-linejoin:miter;stroke:rgb(0%,0%,100%);stroke-opacity:1;stroke-miterlimit:10;" d="M 152.476562 141.929688 L 137.75 150.261719 "/>
<path style="fill:none;stroke-width:1.2;stroke-linecap:butt;stroke-linejoin:miter;stroke:rgb(0%,0%,0%);stroke-opacity:1;stroke-miterlimit:10;" d="M 137.75 150.261719 L 123.019531 158.589844 "/>
<path style="fill:none;stroke-width:1.2;stroke-linecap:butt;stroke-linejoin:miter;stroke:rgb(0%,0%,100%);stroke-opacity:1;stroke-miterlimit:10;" d="M 122.71875 192.429688 L 137.296875 201.019531 "/>
<path style="fill:none;stroke-width:1.2;stroke-linecap:butt;stroke-linejoin:miter;stroke:rgb(0%,0%,0%);stroke-opacity:1;stroke-miterlimit:10;" d="M 137.296875 201.019531 L 151.875 209.613281 "/>
<path style=" stroke:none;fill-rule:nonzero;fill:rgb(100%,100%,100%);fill-opacity:1;" d="M 117.71875 184.429688 L 127.71875 184.429688 L 127.71875 200.429688 L 117.71875 200.429688 Z M 117.71875 184.429688 "/>
<g style="fill:rgb(0%,0%,100%);fill-opacity:1;">
  <use xlink:href="#glyph0-1" x="117.71875" y="196.805664"/>
</g>
<path style="fill:none;stroke-width:1.2;stroke-linecap:butt;stroke-linejoin:miter;stroke:rgb(0%,0%,0%);stroke-opacity:1;stroke-miterlimit:10;" d="M 151.875 209.613281 L 181.332031 192.953125 "/>
<path style="fill:none;stroke-width:1.2;stroke-linecap:butt;stroke-linejoin:miter;stroke:rgb(0%,0%,0%);stroke-opacity:1;stroke-miterlimit:10;" d="M 150.902344 201.015625 L 174.464844 187.6875 "/>
<path style="fill:none;stroke-width:1.2;stroke-linecap:butt;stroke-linejoin:miter;stroke:rgb(0%,0%,0%);stroke-opacity:1;stroke-miterlimit:10;" d="M 181.332031 192.953125 L 181.632812 159.113281 "/>
<path style="fill:none;stroke-width:1.2;stroke-linecap:butt;stroke-linejoin:miter;stroke:rgb(0%,0%,0%);stroke-opacity:1;stroke-miterlimit:10;" d="M 181.632812 159.113281 L 167.054688 150.519531 "/>
<path style="fill:none;stroke-width:1.2;stroke-linecap:butt;stroke-linejoin:miter;stroke:rgb(0%,0%,100%);stroke-opacity:1;stroke-miterlimit:10;" d="M 167.054688 150.519531 L 152.476562 141.929688 "/>
<path style="fill:none;stroke-width:1.2;stroke-linecap:butt;stroke-linejoin:miter;stroke:rgb(0%,0%,0%);stroke-opacity:1;stroke-miterlimit:10;" d="M 174.675781 164.253906 L 163.011719 157.382812 "/>
<path style="fill:none;stroke-width:1.2;stroke-linecap:butt;stroke-linejoin:miter;stroke:rgb(0%,0%,100%);stroke-opacity:1;stroke-miterlimit:10;" d="M 163.011719 157.382812 L 151.351562 150.507812 "/>
<path style="fill:none;stroke-width:1.2;stroke-linecap:butt;stroke-linejoin:miter;stroke:rgb(0%,0%,0%);stroke-opacity:1;stroke-miterlimit:10;" d="M 181.632812 159.113281 L 196.363281 150.78125 "/>
<path style="fill:none;stroke-width:1.2;stroke-linecap:butt;stroke-linejoin:miter;stroke:rgb(0%,0%,100%);stroke-opacity:1;stroke-miterlimit:10;" d="M 196.363281 150.78125 L 211.089844 142.453125 "/>
<path style=" stroke:none;fill-rule:nonzero;fill:rgb(100%,100%,100%);fill-opacity:1;" d="M 147.476562 133.929688 L 157.476562 133.929688 L 157.476562 149.929688 L 147.476562 149.929688 Z M 147.476562 133.929688 "/>
<g style="fill:rgb(0%,0%,100%);fill-opacity:1;">
  <use xlink:href="#glyph0-1" x="147.476562" y="146.305664"/>
</g>
<path style="fill:none;stroke-width:1.2;stroke-linecap:butt;stroke-linejoin:miter;stroke:rgb(0%,0%,100%);stroke-opacity:1;stroke-miterlimit:10;" d="M 211.089844 142.453125 L 213.007812 125.640625 "/>
<path style="fill:none;stroke-width:1.2;stroke-linecap:butt;stroke-linejoin:miter;stroke:rgb(0%,0%,0%);stroke-opacity:1;stroke-miterlimit:10;" d="M 213.007812 125.640625 L 214.925781 108.828125 "/>
<path style="fill:none;stroke-width:1.2;stroke-linecap:butt;stroke-linejoin:miter;stroke:rgb(0%,0%,0%);stroke-opacity:1;stroke-miterlimit:10;" d="M 241.882812 156.492188 L 226.488281 149.472656 "/>
<path style="fill:none;stroke-width:1.2;stroke-linecap:butt;stroke-linejoin:miter;stroke:rgb(0%,0%,100%);stroke-opacity:1;stroke-miterlimit:10;" d="M 226.488281 149.472656 L 211.089844 142.453125 "/>
<path style=" stroke:none;fill-rule:nonzero;fill:rgb(100%,100%,100%);fill-opacity:1;" d="M 206.089844 134.453125 L 216.089844 134.453125 L 216.089844 150.453125 L 206.089844 150.453125 Z M 206.089844 134.453125 "/>
<g style="fill:rgb(0%,0%,100%);fill-opacity:1;">
  <use xlink:href="#glyph0-1" x="206.089844" y="146.829102"/>
</g>
<path style="fill:none;stroke-width:1.2;stroke-linecap:butt;stroke-linejoin:miter;stroke:rgb(0%,0%,0%);stroke-opacity:1;stroke-miterlimit:10;" d="M 214.925781 108.828125 L 248.089844 102.085938 "/>
<path style="fill:none;stroke-width:1.2;stroke-linecap:butt;stroke-linejoin:miter;stroke:rgb(0%,0%,0%);stroke-opacity:1;stroke-miterlimit:10;" d="M 219.828125 115.957031 L 246.359375 110.566406 "/>
<path style="fill:none;stroke-width:1.2;stroke-linecap:butt;stroke-linejoin:miter;stroke:rgb(0%,0%,0%);stroke-opacity:1;stroke-miterlimit:10;" d="M 248.089844 102.085938 L 256.421875 116.816406 "/>
<path style="fill:none;stroke-width:1.2;stroke-linecap:butt;stroke-linejoin:miter;stroke:rgb(0%,0%,100%);stroke-opacity:1;stroke-miterlimit:10;" d="M 256.421875 116.816406 L 264.75 131.542969 "/>
<path style="fill:none;stroke-width:1.2;stroke-linecap:butt;stroke-linejoin:miter;stroke:rgb(0%,0%,100%);stroke-opacity:1;stroke-miterlimit:10;" d="M 264.75 131.542969 L 253.316406 144.019531 "/>
<path style="fill:none;stroke-width:1.2;stroke-linecap:butt;stroke-linejoin:miter;stroke:rgb(0%,0%,0%);stroke-opacity:1;stroke-miterlimit:10;" d="M 253.316406 144.019531 L 241.882812 156.492188 "/>
<path style="fill:none;stroke-width:1.2;stroke-linecap:butt;stroke-linejoin:miter;stroke:rgb(0%,0%,100%);stroke-opacity:1;stroke-miterlimit:10;" d="M 256.59375 128.660156 L 247.445312 138.636719 "/>
<path style="fill:none;stroke-width:1.2;stroke-linecap:butt;stroke-linejoin:miter;stroke:rgb(0%,0%,0%);stroke-opacity:1;stroke-miterlimit:10;" d="M 247.445312 138.636719 L 238.300781 148.617188 "/>
<path style=" stroke:none;fill-rule:nonzero;fill:rgb(100%,100%,100%);fill-opacity:1;" d="M 259.75 123.542969 L 269.75 123.542969 L 269.75 139.542969 L 259.75 139.542969 Z M 259.75 123.542969 "/>
<g style="fill:rgb(0%,0%,100%);fill-opacity:1;">
  <use xlink:href="#glyph0-1" x="259.75" y="135.918945"/>
</g>
</g>
</svg>

<svg xmlns="http://www.w3.org/2000/svg" xmlns:xlink="http://www.w3.org/1999/xlink" width="300pt" height="300pt" viewBox="0 0 300 300"><defs><symbol overflow="visible"><path d="M.64 2.297v-11.47h6.5v11.47zm.735-.72h5.047V-8.436H1.375zm0 0"/></symbol><symbol overflow="visible" id="a"><path d="M1.28-9.484H3l4.203 7.937v-7.937h1.25V0H6.72L2.515-7.922V0H1.28zm0 0"/></symbol></defs><g><path fill="#fff" d="M0 0h300v300H0z"/><path d="M64.105 191.91l.3-33.84M64.406 158.07L35.25 140.887M65.53 149.492l-23.323-13.746M93.863 141.41l-29.457 16.66M35.25 140.887l.3-33.84M35.55 107.047l29.458-16.66M42.418 112.313l23.562-13.33M65.008 90.387l29.156 17.183M94.164 107.57l-.3 33.84M86.172 110.883l-.242 27.07M93.863 141.41l29.157 17.18M123.02 158.59l-.153 16.922" stroke-width="1.2" stroke="#000" stroke-miterlimit="10" fill="none"/><path d="M122.867 175.512l-.148 16.918" stroke-width="1.2" stroke="#00f" stroke-miterlimit="10" fill="none"/><path d="M130.953 162.047l-.12 13.535" stroke-width="1.2" stroke="#000" stroke-miterlimit="10" fill="none"/><path d="M130.832 175.582l-.12 13.535M152.477 141.93l-14.727 8.332" stroke-width="1.2" stroke="#00f" stroke-miterlimit="10" fill="none"/><path d="M137.75 150.262l-14.73 8.328" stroke-width="1.2" stroke="#000" stroke-miterlimit="10" fill="none"/><path d="M122.72 192.43l14.577 8.59" stroke-width="1.2" stroke="#00f" stroke-miterlimit="10" fill="none"/><path d="M137.297 201.02l14.578 8.593" stroke-width="1.2" stroke="#000" stroke-miterlimit="10" fill="none"/><path d="M117.72 184.43h10v16h-10zm0 0" fill="#fff"/><use xlink:href="#a" x="117.719" y="196.806" fill="#00f"/><path d="M151.875 209.613l29.457-16.66M150.902 201.016l23.563-13.328M181.332 192.953l.3-33.84M181.633 159.113l-14.578-8.593" stroke-width="1.2" stroke="#000" stroke-miterlimit="10" fill="none"/><path d="M167.055 150.52l-14.578-8.59" stroke-width="1.2" stroke="#00f" stroke-miterlimit="10" fill="none"/><path d="M174.676 164.254l-11.664-6.87" stroke-width="1.2" stroke="#000" stroke-miterlimit="10" fill="none"/><path d="M163.012 157.383l-11.66-6.875" stroke-width="1.2" stroke="#00f" stroke-miterlimit="10" fill="none"/><path d="M181.633 159.113l14.73-8.332" stroke-width="1.2" stroke="#000" stroke-miterlimit="10" fill="none"/><path d="M196.363 150.78l14.727-8.327" stroke-width="1.2" stroke="#00f" stroke-miterlimit="10" fill="none"/><path d="M147.477 133.93h10v16h-10zm0 0" fill="#fff"/><use xlink:href="#a" x="147.477" y="146.306" fill="#00f"/><path d="M211.09 142.453l1.918-16.812" stroke-width="1.2" stroke="#00f" stroke-miterlimit="10" fill="none"/><path d="M213.008 125.64l1.918-16.812M241.883 156.492l-15.395-7.02" stroke-width="1.2" stroke="#000" stroke-miterlimit="10" fill="none"/><path d="M226.488 149.473l-15.398-7.02" stroke-width="1.2" stroke="#00f" stroke-miterlimit="10" fill="none"/><path d="M206.09 134.453h10v16h-10zm0 0" fill="#fff"/><use xlink:href="#a" x="206.09" y="146.829" fill="#00f"/><path d="M214.926 108.828l33.164-6.742M219.828 115.957l26.53-5.39M248.09 102.086l8.332 14.73" stroke-width="1.2" stroke="#000" stroke-miterlimit="10" fill="none"/><path d="M256.422 116.816l8.328 14.727M264.75 131.543l-11.434 12.477" stroke-width="1.2" stroke="#00f" stroke-miterlimit="10" fill="none"/><path d="M253.316 144.02l-11.433 12.472" stroke-width="1.2" stroke="#000" stroke-miterlimit="10" fill="none"/><path d="M256.594 128.66l-9.15 9.977" stroke-width="1.2" stroke="#00f" stroke-miterlimit="10" fill="none"/><path d="M247.445 138.637l-9.144 9.98" stroke-width="1.2" stroke="#000" stroke-miterlimit="10" fill="none"/><path d="M259.75 123.543h10v16h-10zm0 0" fill="#fff"/><use xlink:href="#a" x="259.75" y="135.919" fill="#00f"/></g></svg>
